build/bank/MTS.svg

<svg xmlns="http://www.w3.org/2000/svg" fill="none" viewBox="0 0 40 40" focusable="false"><path d="M0 0H40V40H0z"/><rect width="38" height="28" x="1" y="6" fill="#FF0032" rx="4"/><path fill="#FFF" fill-rule="evenodd" d="M15.5579 10.8999L14.0499 14.1405L12.5461 10.8999L10.8999 10.8999L10.8999 15.7999L12.056 15.7999L12.056 12.2943L13.5262 15.2569L14.5778 15.2569L16.0479 12.2943L16.0479 15.7999L17.2 15.7999L17.2 10.8999L15.5579 10.8999ZM24.2 11.8773L24.2 10.8999L29.1 10.8999L29.1 11.8773L27.1875 11.8773L27.1875 15.7999L26.1163 15.7999L26.1163 11.8773L24.2 11.8773ZM27.8175 27.8894C27.9305 27.773 28.0006 27.6191 28.028 27.4319L29.1 27.436C29.0726 27.8229 28.948 28.1557 28.7335 28.4177C28.5348 28.659 28.2657 28.8337 27.9266 28.9418C27.5991 29.0458 27.1665 29.0999 26.6792 29.0999C26.1647 29.0999 25.7202 29.0209 25.3538 28.867C24.9835 28.7089 24.6951 28.4468 24.4962 28.0849C24.3053 27.7397 24.2078 27.2739 24.2 26.7081L24.2 26.5917C24.2078 26.026 24.3053 25.5601 24.4962 25.2149C24.6951 24.853 24.9835 24.5909 25.3538 24.4328C25.7202 24.2789 26.1647 24.1999 26.6792 24.1999C27.1665 24.1999 27.5991 24.254 27.9266 24.358C28.2657 24.4661 28.5387 24.6408 28.7335 24.8821C28.948 25.1483 29.0687 25.4769 29.1 25.8637L28.028 25.8637C28.0006 25.6765 27.9305 25.5226 27.8175 25.4062C27.7123 25.2939 27.568 25.219 27.3887 25.1733C27.2133 25.1317 26.952 25.1067 26.6792 25.1067C26.3947 25.1067 26.1412 25.1441 25.9308 25.2232C25.7241 25.2981 25.5643 25.4311 25.4474 25.6141C25.3304 25.8013 25.272 26.0675 25.272 26.4086L25.272 26.887C25.272 27.2323 25.3304 27.4984 25.4474 27.6815C25.5604 27.8645 25.7241 27.9976 25.9308 28.0725C26.1451 28.1515 26.3947 28.1889 26.6792 28.1889C26.952 28.1889 27.2133 28.164 27.3887 28.1224C27.568 28.0766 27.7123 27.9976 27.8175 27.8894Z"/></svg>

<svg xmlns="http://www.w3.org/2000/svg" fill="none" viewBox="0 0 40 40" focusable="false"><path fill="none" d="M0 0h40v40H0z"/><rect width="38" height="28" x="1" y="6" fill="#FF0032" rx="4"/><path fill="#FFF" fill-rule="evenodd" d="m15.55 10.89-1.51 3.25-1.5-3.25h-1.65v4.9h1.16v-3.5l1.47 2.96h1.05l1.47-2.96v3.5h1.16v-4.9zm8.65 0v.98h1.91v3.92h1.07v-3.92h1.92v-.98zm3.61 16.99c.12-.11.19-.27.21-.45h1.08c-.03.39-.16.72-.37.98-.2.24-.47.42-.81.53-.33.1-.76.15-1.25.15-.51 0-.95-.07-1.32-.23s-.66-.42-.86-.78c-.19-.35-.29-.81-.29-1.38v-.11c0-.57.1-1.03.29-1.38.2-.36.49-.62.86-.78q.555-.24 1.32-.24c.49 0 .92.06 1.25.16.34.11.61.29.81.53.21.26.33.59.37.98h-1.08a.73.73 0 0 0-.21-.46.8.8 0 0 0-.43-.23c-.17-.04-.43-.07-.71-.07s-.53.04-.74.12c-.21.07-.37.21-.49.39-.11.19-.17.45-.17.79v.48c0 .35.06.61.17.8.12.18.28.31.49.39s.46.11.74.11.54-.02.71-.06c.18-.05.33-.13.43-.24"/></svg>
